fs/comment_checkmark_20_regular.svg

<svg viewBox="0 0 20 20" fill="none" xmlns="http://www.w3.org/2000/svg" height="1em" width="1em">
  <path d="M19 5.5C19 7.98528 16.9853 10 14.5 10C12.0147 10 10 7.98528 10 5.5C10 3.01472 12.0147 1 14.5 1C16.9853 1 19 3.01472 19 5.5ZM16.1464 3.64645L13.5 6.29289L12.8536 5.64645C12.6583 5.45118 12.3417 5.45118 12.1464 5.64645C11.9512 5.84171 11.9512 6.15829 12.1464 6.35355L13.1464 7.35355C13.3417 7.54882 13.6583 7.54882 13.8536 7.35355L16.8536 4.35355C17.0488 4.15829 17.0488 3.84171 16.8536 3.64645C16.6583 3.45118 16.3417 3.45118 16.1464 3.64645ZM17 12.2764V10.4003C17.3578 10.2174 17.6929 9.99647 18 9.74284V12.2764C18 13.6935 16.8359 14.8423 15.4 14.8423H10.81L6.79895 17.8034C6.35668 18.1298 5.73 18.0406 5.39921 17.6042C5.26989 17.4335 5.2 17.2262 5.2 17.0133L5.19937 14.8423H4.6C3.16406 14.8423 2 13.6935 2 12.2764V5.56582C2 4.14876 3.16406 3 4.6 3H9.59971C9.43777 3.31679 9.30564 3.65136 9.20703 4H4.6C3.70383 4 3 4.71348 3 5.56582V12.2764C3 13.1288 3.70383 13.8423 4.6 13.8423H6.19908L6.2 17L6.20346 16.9997L6.20502 16.9988L10.4809 13.8423H15.4C16.2962 13.8423 17 13.1288 17 12.2764Z" fill="#212121"/>
</svg>

<svg viewBox="0 0 20 20" fill="none" xmlns="http://www.w3.org/2000/svg" height="1em" width="1em">
  <path d="M19 5.5a4.5 4.5 0 1 1-9 0 4.5 4.5 0 0 1 9 0Zm-2.854-1.854L13.5 6.293l-.646-.647a.5.5 0 0 0-.708.708l1 1a.5.5 0 0 0 .708 0l3-3a.5.5 0 0 0-.708-.708Zm.854 8.63V10.4a5.507 5.507 0 0 0 1-.657v2.533c0 1.418-1.164 2.566-2.6 2.566h-4.59l-4.011 2.961a1.009 1.009 0 0 1-1.4-.199.978.978 0 0 1-.199-.59v-2.172h-.6c-1.436 0-2.6-1.149-2.6-2.566v-6.71C2 4.149 3.164 3 4.6 3h5a5.463 5.463 0 0 0-.393 1H4.6C3.704 4 3 4.713 3 5.566v6.71c0 .853.704 1.566 1.6 1.566h1.6V17h.003l.002-.001 4.276-3.157H15.4c.896 0 1.6-.713 1.6-1.566Z" fill="#212121"/>
</svg>
